P3
8 8
255
12 31 45  12 31 45  12 31 45  12 31 45  12 31 45  12 31 45  12 31 45  12 31 45
12 31 45  12 31 45  42 203 190  42 203 190  42 203 190  42 203 190  12 31 45  12 31 45
12 31 45  42 203 190  42 203 190  42 203 190  42 203 190  42 203 190  42 203 190  12 31 45
12 31 45  42 203 190  42 203 190  255 143 82  255 143 82  42 203 190  42 203 190  12 31 45
12 31 45  42 203 190  42 203 190  255 143 82  255 143 82  42 203 190  42 203 190  12 31 45
12 31 45  42 203 190  42 203 190  42 203 190  42 203 190  42 203 190  42 203 190  12 31 45
12 31 45  12 31 45  42 203 190  42 203 190  42 203 190  42 203 190  12 31 45  12 31 45
12 31 45  12 31 45  12 31 45  12 31 45  12 31 45  12 31 45  12 31 45  12 31 45
